X:224
T:the Earl of Cromartie
O:scotland
R:March
M:4/4
C:George MacIlwham
K:D
A2|\
d>c de f2fe|d2cB A2 Bc|d>c de fe df|B4 B2AB|\
d>c de fg fe|d2cB A2ag|fd AB GA ce|d6::\
fg|\
a2af d2ef|g>a gf e2ce|f2fd B2cd|e>d cB A2fg|\
a2af d2ef|g>a ge B2ed|c>B AB GA ce|d6 fg|\
a2af d2ef|g>a gf e2ce|f2fd B2cd|e>d cB A2Bc|\
d>c de fg fe|d2cB A2ag|fd AB GA ce|d6|]
